X: 482
T: The Summer Is Come
N:"With feeling" "collected by J.O'Neill"
N:Irish title: ta an sa.mra.d ann
B:O'Neill's 482
Z:Transcribed by henrik.norbeck@mailbox.swipnet.se
M:3/4
L:1/8
K:D
(3A/B/c/ | d>(c A/G/c/G/) (A>G | E/D/G/>E/) DD D(D/E/) | FG A2 f>e | d/c/A/G/ F/G/A/B/ =c (D/E/) |
FG A2 (gf/e/) | d>(c e/d/c/e/) d(3A/B/c/ | d>(=c A/G/c/G/) (A>G | E/D/G/>E/) DD D ||


